svgs/sharp-regular/reel.svg

<svg xmlns="http://www.w3.org/2000/svg" viewBox="0 0 448 512"><!--! Font Awesome Pro 6.6.0 by @fontawesome - https://fontawesome.com License - https://fontawesome.com/license (Commercial License) Copyright 2024 Fonticons, Inc. --><path d="M24 0L0 0 0 48l24 0 40 0 0 24 0 40 40 0 240 0 40 0 0-40 0-24 40 0 24 0 0-48L424 0 384 0 344 0 104 0 64 0 24 0zm80 72l0-24 240 0 0 24L104 72zM24 464L0 464l0 48 24 0 40 0 40 0 240 0 40 0 40 0 24 0 0-48-24 0-40 0 0-24 0-40-40 0-240 0-40 0 0 40 0 24-40 0zm320 0l-240 0 0-24 240 0 0 24zM64 176l320 0 0-32L64 144l0 32zm0 64l368 0 16 0 0-32-16 0L64 208l0 32zm0 64l320 0 0-32L64 272l0 32zm0 64l320 0 0-32L64 336l0 32z"/></svg>

<svg xmlns="http://www.w3.org/2000/svg" viewBox="0 0 448 512"><!--! Font Awesome Pro 6.4.0 by @fontawesome - https://fontawesome.com License - https://fontawesome.com/license (Commercial License) Copyright 2023 Fonticons, Inc. --><path d="M24 0H0V48H24 64V72v40h40H344h40V72 48h40 24V0H424 384 344 104 64 24zm80 72V48H344V72H104zM24 464H0v48H24 64h40H344h40 40 24V464H424 384V440 400H344 104 64v40 24H24zm320 0H104V440H344v24zM64 176H384V144H64v32zm0 64H432h16V208H432 64v32zm0 64H384V272H64v32zm0 64H384V336H64v32z"/></svg>
